X: 11610
T: Eggs
R: reel
M: 4/4
K: Dmajor
|:d3e dA A2|defa a2fa|gafe d3B|ABdf edfe|
d3e dA A2|defa a2 fa|b2af gfed|1 ABde edfe:|2 ABde edfd||
|:e3f edBA|d2 fd adfd|e3f edBA|defa a2 fa|
b4 a2fa|b2af gfed|e3f edBA|1 ABde edfd:|2 ABde edfe||

